outputs/icons/action/calendar_available_round.svg

<svg xmlns="http://www.w3.org/2000/svg" width="1200" height="1200" fill="none"><path fill="#000" d="M900 150h50c55 0 100 45 100 100v250.67c0 27.61-22.385 50-50 50-26.755 0-48.605-21.02-49.935-47.445l-.065-.015V400H250v500c0 27.5 22.5 50 50 50h202.245v.55c24.065 3.61 42.515 24.38 42.515 49.45s-18.45 45.83-42.515 49.445v.555H250c-55.5 0-100-45-100-100l.5-700c0-55 44-100 99.5-100h50v-50c0-27.614 22.386-50 50-50s50 22.386 50 50v50h400v-50c0-27.614 22.385-50 50-50s50 22.386 50 50z"/><path fill="#000" fill-rule="evenodd" d="M850 1100c138.07 0 250-111.93 250-250S988.07 600 850 600 600 711.93 600 850s111.93 250 250 250M748.935 845.67l59.54 59.55L951.07 761.515c12.94-12.94 34.02-12.94 46.96 0 12.945 12.945 12.945 34.02 0 46.965L833.99 972.52c-14.42 14.42-37.72 14.42-52.14 0l-79.88-79.885c-12.94-12.945-12.94-34.02 0-46.965 12.945-12.94 34.02-12.94 46.965 0"/></svg>

<svg width="1200" height="1200" viewBox="0 0 1200 1200" fill="none" xmlns="http://www.w3.org/2000/svg"><path d="M900 150H950C1005 150 1050 195 1050 250V500.67C1050 528.28 1027.615 550.67 1000 550.67C973.245 550.67 951.395 529.65 950.065 503.225L950 503.21V400H250V900C250 927.5 272.5 950 300 950H502.245V950.55C526.31 954.16 544.76 974.93 544.76 1000C544.76 1025.07 526.31 1045.83 502.245 1049.445V1050H250C194.5 1050 150 1005 150 950L150.5 250C150.5 195 194.5 150 250 150H300V100C300 72.386 322.386 50 350 50C377.614 50 400 72.386 400 100V150H800V100C800 72.386 822.385 50 850 50C877.615 50 900 72.386 900 100V150Z" fill="black"/><path fill-rule="evenodd" d="M850 1100C988.07 1100 1100 988.07 1100 850C1100 711.93 988.07 600 850 600C711.93 600 600 711.93 600 850C600 988.07 711.93 1100 850 1100ZM748.935 845.67L808.475 905.22L951.07 761.515C964.01 748.575 985.09 748.575 998.03 761.515C1010.975 774.46 1010.975 795.535 998.03 808.48L833.99 972.52C819.57 986.94 796.27 986.94 781.85 972.52L701.97 892.635C689.03 879.69 689.03 858.615 701.97 845.67C714.915 832.73 735.99 832.73 748.935 845.67Z" fill="black"/></svg>
